X: 1
T:The Broken Bodhran  "CYMRU"
M:6/8
L:1/8
Q:80
C:Craig Jobe
S:Jig
K:HP
|: e|
{g}A{d}B{e}Ad{e}Bd|
e{g}e{A}e{ag}a2e|
{g}d{e}Bd{g}d{e}Gd|  !
{g}d{e}d{c}d{g}fed:|2 |
{g}A{d}B{e}Ad{e}Bd|
e{g}e{A}e{ag}a2e|  !
{ag}a2e{g}d{e}Be|
{g}A3{gAGAG}A2:| |:
e|  !
{ag}a2eace|
{g}dad{gef}e2{A}e|
{g}d{e}Bd{g}d{e}Gd|  !
{g}d{e}d{c}d{g}fed|1 |
{ag}a2eace|
{g}dad{gef}e2{A}e|  !
{ag}a2e{g}d{e}Be|
{g}A3{gAGAG}A2:|
